X:810
T: Lifford
S: B.Breathnach: "Ceol Rince na hEireann" II/238 (gan ainm)
Z: B.Black
L: 1/8
N: Close relative of "The Gravel Walks" (parts 1 and 2)
M: 4/4
R: reel
K: Ador
(3AAA eA (3cBA eA|(3AAA ed BGGB|(3AAA eA (3cBA ed|egdc BGGB|
(3AAA eA (3cBA eA|(3AAA ed BGGB|(3AAA eA (3cBA ed|egdc BGG ||
B|(3AAA aA gAfA|(3AAA ed BGGB|(3AAA aA gAfd|egdc BGGB|
(3AAA aA gAfA|(3AAA ed BGGB|Aaag aged|egdc BGGB ||
